images/50458187.svg

<?xml version="1.0" encoding="UTF-8"?>
<svg xmlns="http://www.w3.org/2000/svg" xmlns:xlink="http://www.w3.org/1999/xlink" width="300pt" height="300pt" viewBox="0 0 300 300" version="1.1">
<defs>
<g>
<symbol overflow="visible" id="glyph0-0">
<path style="stroke:none;" d="M 0.453125 1.59375 L 0.453125 -6.34375 L 4.953125 -6.34375 L 4.953125 1.59375 Z M 0.953125 1.09375 L 4.453125 1.09375 L 4.453125 -5.84375 L 0.953125 -5.84375 Z M 0.953125 1.09375 "/>
</symbol>
<symbol overflow="visible" id="glyph0-1">
<path style="stroke:none;" d="M 0.890625 -6.5625 L 4.65625 -6.5625 L 4.65625 -5.8125 L 1.765625 -5.8125 L 1.765625 -3.875 L 4.375 -3.875 L 4.375 -3.140625 L 1.765625 -3.140625 L 1.765625 0 L 0.890625 0 Z M 0.890625 -6.5625 "/>
</symbol>
<symbol overflow="visible" id="glyph0-2">
<path style="stroke:none;" d="M 0.890625 -6.5625 L 2.078125 -6.5625 L 4.984375 -1.078125 L 4.984375 -6.5625 L 5.84375 -6.5625 L 5.84375 0 L 4.65625 0 L 1.75 -5.484375 L 1.75 0 L 0.890625 0 Z M 0.890625 -6.5625 "/>
</symbol>
<symbol overflow="visible" id="glyph0-3">
<path style="stroke:none;" d="M 0.890625 -6.5625 L 1.765625 -6.5625 L 1.765625 -3.875 L 5 -3.875 L 5 -6.5625 L 5.890625 -6.5625 L 5.890625 0 L 5 0 L 5 -3.125 L 1.765625 -3.125 L 1.765625 0 L 0.890625 0 Z M 0.890625 -6.5625 "/>
</symbol>
<symbol overflow="visible" id="glyph0-4">
<path style="stroke:none;" d="M 3.546875 -5.953125 C 2.898438 -5.953125 2.382812 -5.710938 2 -5.234375 C 1.625 -4.753906 1.4375 -4.101562 1.4375 -3.28125 C 1.4375 -2.445312 1.625 -1.789062 2 -1.3125 C 2.382812 -0.832031 2.898438 -0.59375 3.546875 -0.59375 C 4.191406 -0.59375 4.703125 -0.832031 5.078125 -1.3125 C 5.453125 -1.789062 5.640625 -2.445312 5.640625 -3.28125 C 5.640625 -4.101562 5.453125 -4.753906 5.078125 -5.234375 C 4.703125 -5.710938 4.191406 -5.953125 3.546875 -5.953125 Z M 3.546875 -6.6875 C 4.460938 -6.6875 5.195312 -6.375 5.75 -5.75 C 6.300781 -5.132812 6.578125 -4.3125 6.578125 -3.28125 C 6.578125 -2.238281 6.300781 -1.410156 5.75 -0.796875 C 5.195312 -0.179688 4.460938 0.125 3.546875 0.125 C 2.617188 0.125 1.878906 -0.179688 1.328125 -0.796875 C 0.773438 -1.410156 0.5 -2.238281 0.5 -3.28125 C 0.5 -4.3125 0.773438 -5.132812 1.328125 -5.75 C 1.878906 -6.375 2.617188 -6.6875 3.546875 -6.6875 Z M 3.546875 -6.6875 "/>
</symbol>
<symbol overflow="visible" id="glyph1-0">
<path style="stroke:none;" d="M 0.40625 1.421875 L 0.40625 -5.640625 L 4.40625 -5.640625 L 4.40625 1.421875 Z M 0.84375 0.96875 L 3.953125 0.96875 L 3.953125 -5.1875 L 0.84375 -5.1875 Z M 0.84375 0.96875 "/>
</symbol>
<symbol overflow="visible" id="glyph1-1">
<path style="stroke:none;" d="M 3.6875 -5.015625 L 3.6875 -2.84375 L 5.859375 -2.84375 L 5.859375 -2.171875 L 3.6875 -2.171875 L 3.6875 0 L 3.03125 0 L 3.03125 -2.171875 L 0.84375 -2.171875 L 0.84375 -2.84375 L 3.03125 -2.84375 L 3.03125 -5.015625 Z M 3.6875 -5.015625 "/>
</symbol>
</g>
</defs>
<g id="surface28477">
<rect x="0" y="0" width="300" height="300" style="fill:rgb(100%,100%,100%);fill-opacity:1;stroke:none;"/>
<path style="fill:none;stroke-width:1.2;stroke-linecap:butt;stroke-linejoin:miter;stroke:rgb(20%,80%,80%);stroke-opacity:1;stroke-miterlimit:10;" d="M 58.402344 185.183594 L 57.484375 174.46875 "/>
<path style="fill:none;stroke-width:1.2;stroke-linecap:butt;stroke-linejoin:miter;stroke:rgb(0%,0%,0%);stroke-opacity:1;stroke-miterlimit:10;" d="M 57.484375 174.46875 L 56.566406 163.753906 "/>
<path style=" stroke:none;fill-rule:nonzero;fill:rgb(100%,100%,100%);fill-opacity:1;" d="M 55.402344 179.683594 L 61.402344 179.683594 L 61.402344 190.683594 L 55.402344 190.683594 Z M 55.402344 179.683594 "/>
<g style="fill:rgb(20%,80%,80%);fill-opacity:1;">
  <use xlink:href="#glyph0-1" x="55.402344" y="188.34668"/>
</g>
<path style="fill:none;stroke-width:1.2;stroke-linecap:butt;stroke-linejoin:miter;stroke:rgb(0%,0%,0%);stroke-opacity:1;stroke-miterlimit:10;" d="M 56.566406 163.753906 L 37.085938 154.628906 "/>
<path style="fill:none;stroke-width:1.2;stroke-linecap:butt;stroke-linejoin:miter;stroke:rgb(0%,0%,0%);stroke-opacity:1;stroke-miterlimit:10;" d="M 56.765625 158.257812 L 41.183594 150.957031 "/>
<path style="fill:none;stroke-width:1.2;stroke-linecap:butt;stroke-linejoin:miter;stroke:rgb(0%,0%,0%);stroke-opacity:1;stroke-miterlimit:10;" d="M 74.207031 151.445312 L 56.566406 163.753906 "/>
<path style="fill:none;stroke-width:1.2;stroke-linecap:butt;stroke-linejoin:miter;stroke:rgb(0%,0%,0%);stroke-opacity:1;stroke-miterlimit:10;" d="M 37.085938 154.628906 L 35.25 133.199219 "/>
<path style="fill:none;stroke-width:1.2;stroke-linecap:butt;stroke-linejoin:miter;stroke:rgb(0%,0%,0%);stroke-opacity:1;stroke-miterlimit:10;" d="M 35.25 133.199219 L 52.890625 120.890625 "/>
<path style="fill:none;stroke-width:1.2;stroke-linecap:butt;stroke-linejoin:miter;stroke:rgb(0%,0%,0%);stroke-opacity:1;stroke-miterlimit:10;" d="M 39.910156 136.117188 L 54.023438 126.273438 "/>
<path style="fill:none;stroke-width:1.2;stroke-linecap:butt;stroke-linejoin:miter;stroke:rgb(0%,0%,0%);stroke-opacity:1;stroke-miterlimit:10;" d="M 52.890625 120.890625 L 72.371094 130.015625 "/>
<path style="fill:none;stroke-width:1.2;stroke-linecap:butt;stroke-linejoin:miter;stroke:rgb(0%,0%,0%);stroke-opacity:1;stroke-miterlimit:10;" d="M 72.371094 130.015625 L 74.207031 151.445312 "/>
<path style="fill:none;stroke-width:1.2;stroke-linecap:butt;stroke-linejoin:miter;stroke:rgb(0%,0%,0%);stroke-opacity:1;stroke-miterlimit:10;" d="M 67.511719 132.589844 L 68.980469 149.734375 "/>
<path style="fill:none;stroke-width:1.2;stroke-linecap:butt;stroke-linejoin:miter;stroke:rgb(0%,0%,0%);stroke-opacity:1;stroke-miterlimit:10;" d="M 74.207031 151.445312 L 93.6875 160.570312 "/>
<path style="fill:none;stroke-width:1.2;stroke-linecap:butt;stroke-linejoin:miter;stroke:rgb(0%,0%,0%);stroke-opacity:1;stroke-miterlimit:10;" d="M 93.6875 160.570312 L 94.605469 171.285156 "/>
<path style="fill:none;stroke-width:1.2;stroke-linecap:butt;stroke-linejoin:miter;stroke:rgb(0%,0%,100%);stroke-opacity:1;stroke-miterlimit:10;" d="M 94.605469 171.285156 L 95.523438 182.003906 "/>
<path style="fill:none;stroke-width:1.2;stroke-linecap:butt;stroke-linejoin:miter;stroke:rgb(0%,0%,0%);stroke-opacity:1;stroke-miterlimit:10;" d="M 98.910156 162.28125 L 99.648438 170.855469 "/>
<path style="fill:none;stroke-width:1.2;stroke-linecap:butt;stroke-linejoin:miter;stroke:rgb(0%,0%,100%);stroke-opacity:1;stroke-miterlimit:10;" d="M 99.648438 170.855469 L 100.382812 179.425781 "/>
<path style="fill:none;stroke-width:1.2;stroke-linecap:butt;stroke-linejoin:miter;stroke:rgb(0%,0%,0%);stroke-opacity:1;stroke-miterlimit:10;" d="M 111.328125 148.265625 L 93.6875 160.570312 "/>
<path style="fill:none;stroke-width:1.2;stroke-linecap:butt;stroke-linejoin:miter;stroke:rgb(0%,0%,100%);stroke-opacity:1;stroke-miterlimit:10;" d="M 95.523438 182.003906 L 105.261719 186.566406 "/>
<path style="fill:none;stroke-width:1.2;stroke-linecap:butt;stroke-linejoin:miter;stroke:rgb(0%,0%,0%);stroke-opacity:1;stroke-miterlimit:10;" d="M 105.261719 186.566406 L 115 191.125 "/>
<path style=" stroke:none;fill-rule:nonzero;fill:rgb(100%,100%,100%);fill-opacity:1;" d="M 85.523438 174.503906 L 106.523438 174.503906 L 106.523438 189.503906 L 85.523438 189.503906 Z M 85.523438 174.503906 "/>
<g style="fill:rgb(0%,0%,100%);fill-opacity:1;">
  <use xlink:href="#glyph0-2" x="85.523438" y="186.605469"/>
  <use xlink:href="#glyph0-3" x="92.500977" y="186.605469"/>
</g>
<g style="fill:rgb(0%,0%,100%);fill-opacity:1;">
  <use xlink:href="#glyph1-1" x="99.515625" y="181.722656"/>
</g>
<path style="fill:none;stroke-width:1.2;stroke-linecap:butt;stroke-linejoin:miter;stroke:rgb(0%,0%,0%);stroke-opacity:1;stroke-miterlimit:10;" d="M 115 191.125 L 132.644531 178.820312 "/>
<path style="fill:none;stroke-width:1.2;stroke-linecap:butt;stroke-linejoin:miter;stroke:rgb(0%,0%,0%);stroke-opacity:1;stroke-miterlimit:10;" d="M 113.871094 185.746094 L 127.984375 175.898438 "/>
<path style="fill:none;stroke-width:1.2;stroke-linecap:butt;stroke-linejoin:miter;stroke:rgb(0%,0%,0%);stroke-opacity:1;stroke-miterlimit:10;" d="M 132.644531 178.820312 L 130.804688 157.390625 "/>
<path style="fill:none;stroke-width:1.2;stroke-linecap:butt;stroke-linejoin:miter;stroke:rgb(0%,0%,0%);stroke-opacity:1;stroke-miterlimit:10;" d="M 130.804688 157.390625 L 139.625 151.234375 "/>
<path style="fill:none;stroke-width:1.2;stroke-linecap:butt;stroke-linejoin:miter;stroke:rgb(0%,0%,100%);stroke-opacity:1;stroke-miterlimit:10;" d="M 139.625 151.234375 L 148.445312 145.082031 "/>
<path style="fill:none;stroke-width:1.2;stroke-linecap:butt;stroke-linejoin:miter;stroke:rgb(0%,0%,0%);stroke-opacity:1;stroke-miterlimit:10;" d="M 130.804688 157.390625 L 111.328125 148.265625 "/>
<path style="fill:none;stroke-width:1.2;stroke-linecap:butt;stroke-linejoin:miter;stroke:rgb(0%,0%,0%);stroke-opacity:1;stroke-miterlimit:10;" d="M 126.710938 161.058594 L 111.128906 153.761719 "/>
<path style="fill:none;stroke-width:1.2;stroke-linecap:butt;stroke-linejoin:miter;stroke:rgb(0%,0%,100%);stroke-opacity:1;stroke-miterlimit:10;" d="M 148.445312 145.082031 L 158.1875 149.644531 "/>
<path style="fill:none;stroke-width:1.2;stroke-linecap:butt;stroke-linejoin:miter;stroke:rgb(0%,0%,0%);stroke-opacity:1;stroke-miterlimit:10;" d="M 158.1875 149.644531 L 167.925781 154.207031 "/>
<path style=" stroke:none;fill-rule:nonzero;fill:rgb(100%,100%,100%);fill-opacity:1;" d="M 141.445312 139.582031 L 155.445312 139.582031 L 155.445312 150.582031 L 141.445312 150.582031 Z M 141.445312 139.582031 "/>
<g style="fill:rgb(0%,0%,100%);fill-opacity:1;">
  <use xlink:href="#glyph0-2" x="141.445312" y="148.245117"/>
  <use xlink:href="#glyph0-3" x="148.422852" y="148.245117"/>
</g>
<path style="fill:none;stroke-width:1.2;stroke-linecap:butt;stroke-linejoin:miter;stroke:rgb(0%,0%,0%);stroke-opacity:1;stroke-miterlimit:10;" d="M 167.925781 154.207031 L 175.246094 174.429688 "/>
<path style="fill:none;stroke-width:1.2;stroke-linecap:butt;stroke-linejoin:miter;stroke:rgb(0%,0%,0%);stroke-opacity:1;stroke-miterlimit:10;" d="M 167.925781 154.207031 L 188.148438 146.882812 "/>
<path style="fill:none;stroke-width:1.2;stroke-linecap:butt;stroke-linejoin:miter;stroke:rgb(0%,0%,0%);stroke-opacity:1;stroke-miterlimit:10;" d="M 171.671875 158.234375 L 187.851562 152.375 "/>
<path style="fill:none;stroke-width:1.2;stroke-linecap:butt;stroke-linejoin:miter;stroke:rgb(0%,0%,0%);stroke-opacity:1;stroke-miterlimit:10;" d="M 172.953125 173.359375 L 168.394531 183.097656 "/>
<path style="fill:none;stroke-width:1.2;stroke-linecap:butt;stroke-linejoin:miter;stroke:rgb(100%,0%,0%);stroke-opacity:1;stroke-miterlimit:10;" d="M 168.394531 183.097656 L 163.832031 192.835938 "/>
<path style="fill:none;stroke-width:1.2;stroke-linecap:butt;stroke-linejoin:miter;stroke:rgb(0%,0%,0%);stroke-opacity:1;stroke-miterlimit:10;" d="M 177.539062 175.503906 L 172.976562 185.242188 "/>
<path style="fill:none;stroke-width:1.2;stroke-linecap:butt;stroke-linejoin:miter;stroke:rgb(100%,0%,0%);stroke-opacity:1;stroke-miterlimit:10;" d="M 172.976562 185.242188 L 168.414062 194.984375 "/>
<path style="fill:none;stroke-width:1.2;stroke-linecap:butt;stroke-linejoin:miter;stroke:rgb(0%,0%,0%);stroke-opacity:1;stroke-miterlimit:10;" d="M 175.246094 174.429688 L 195.472656 167.109375 "/>
<path style=" stroke:none;fill-rule:nonzero;fill:rgb(100%,100%,100%);fill-opacity:1;" d="M 158.121094 188.410156 L 166.121094 188.410156 L 166.121094 199.410156 L 158.121094 199.410156 Z M 158.121094 188.410156 "/>
<g style="fill:rgb(100%,0%,0%);fill-opacity:1;">
  <use xlink:href="#glyph0-4" x="158.121094" y="197.073242"/>
</g>
<path style="fill:none;stroke-width:1.2;stroke-linecap:butt;stroke-linejoin:miter;stroke:rgb(0%,0%,0%);stroke-opacity:1;stroke-miterlimit:10;" d="M 194.398438 169.402344 L 204.136719 173.964844 "/>
<path style="fill:none;stroke-width:1.2;stroke-linecap:butt;stroke-linejoin:miter;stroke:rgb(100%,0%,0%);stroke-opacity:1;stroke-miterlimit:10;" d="M 204.136719 173.964844 L 213.875 178.527344 "/>
<path style="fill:none;stroke-width:1.2;stroke-linecap:butt;stroke-linejoin:miter;stroke:rgb(0%,0%,0%);stroke-opacity:1;stroke-miterlimit:10;" d="M 196.546875 164.816406 L 206.285156 169.378906 "/>
<path style="fill:none;stroke-width:1.2;stroke-linecap:butt;stroke-linejoin:miter;stroke:rgb(100%,0%,0%);stroke-opacity:1;stroke-miterlimit:10;" d="M 206.285156 169.378906 L 216.023438 173.941406 "/>
<path style="fill:none;stroke-width:1.2;stroke-linecap:butt;stroke-linejoin:miter;stroke:rgb(0%,0%,0%);stroke-opacity:1;stroke-miterlimit:10;" d="M 195.472656 167.109375 L 188.148438 146.882812 "/>
<path style=" stroke:none;fill-rule:nonzero;fill:rgb(100%,100%,100%);fill-opacity:1;" d="M 210.949219 170.734375 L 218.949219 170.734375 L 218.949219 181.734375 L 210.949219 181.734375 Z M 210.949219 170.734375 "/>
<g style="fill:rgb(100%,0%,0%);fill-opacity:1;">
  <use xlink:href="#glyph0-4" x="210.949219" y="179.397461"/>
</g>
<path style="fill:none;stroke-width:1.2;stroke-linecap:butt;stroke-linejoin:miter;stroke:rgb(0%,0%,0%);stroke-opacity:1;stroke-miterlimit:10;" d="M 188.148438 146.882812 L 192.710938 137.144531 "/>
<path style="fill:none;stroke-width:1.2;stroke-linecap:butt;stroke-linejoin:miter;stroke:rgb(0%,0%,100%);stroke-opacity:1;stroke-miterlimit:10;" d="M 192.710938 137.144531 L 197.273438 127.40625 "/>
<path style="fill:none;stroke-width:1;stroke-linecap:butt;stroke-linejoin:miter;stroke:rgb(0%,0%,0%);stroke-opacity:1;stroke-miterlimit:10;" d="M 218.707031 125.570312 L 218.707031 125.570312 M 215.71875 125.300781 L 215.804688 126.339844 M 212.730469 125.035156 L 212.90625 127.113281 M 209.742188 124.765625 L 210.007812 127.882812 M 206.753906 124.5 L 207.109375 128.65625 M 203.765625 124.234375 L 204.210938 129.425781 M 200.777344 123.964844 L 201.3125 130.199219 M 197.789062 123.699219 L 198.414062 130.972656 M 196.949219 123.625 L 197.597656 131.1875 "/>
<path style=" stroke:none;fill-rule:nonzero;fill:rgb(100%,100%,100%);fill-opacity:1;" d="M 190.273438 121.90625 L 204.273438 121.90625 L 204.273438 132.90625 L 190.273438 132.90625 Z M 190.273438 121.90625 "/>
<g style="fill:rgb(0%,0%,100%);fill-opacity:1;">
  <use xlink:href="#glyph0-2" x="190.273438" y="130.569336"/>
  <use xlink:href="#glyph0-3" x="197.250977" y="130.569336"/>
</g>
<path style="fill:none;stroke-width:1.2;stroke-linecap:butt;stroke-linejoin:miter;stroke:rgb(0%,0%,0%);stroke-opacity:1;stroke-miterlimit:10;" d="M 218.707031 125.570312 L 227.828125 106.089844 "/>
<path style="fill:none;stroke-width:1.2;stroke-linecap:butt;stroke-linejoin:miter;stroke:rgb(0%,0%,0%);stroke-opacity:1;stroke-miterlimit:10;" d="M 218.707031 125.570312 L 231.011719 143.210938 "/>
<path style="fill:none;stroke-width:1.2;stroke-linecap:butt;stroke-linejoin:miter;stroke:rgb(0%,0%,0%);stroke-opacity:1;stroke-miterlimit:10;" d="M 231.011719 143.210938 L 221.886719 162.6875 "/>
<path style="fill:none;stroke-width:1.2;stroke-linecap:butt;stroke-linejoin:miter;stroke:rgb(0%,0%,0%);stroke-opacity:1;stroke-miterlimit:10;" d="M 234.683594 147.304688 L 227.382812 162.886719 "/>
<path style="fill:none;stroke-width:1.2;stroke-linecap:butt;stroke-linejoin:miter;stroke:rgb(0%,0%,0%);stroke-opacity:1;stroke-miterlimit:10;" d="M 252.441406 141.371094 L 231.011719 143.210938 "/>
<path style="fill:none;stroke-width:1.2;stroke-linecap:butt;stroke-linejoin:miter;stroke:rgb(0%,0%,0%);stroke-opacity:1;stroke-miterlimit:10;" d="M 221.886719 162.6875 L 234.195312 180.328125 "/>
<path style="fill:none;stroke-width:1.2;stroke-linecap:butt;stroke-linejoin:miter;stroke:rgb(0%,0%,0%);stroke-opacity:1;stroke-miterlimit:10;" d="M 234.195312 180.328125 L 255.625 178.492188 "/>
<path style="fill:none;stroke-width:1.2;stroke-linecap:butt;stroke-linejoin:miter;stroke:rgb(0%,0%,0%);stroke-opacity:1;stroke-miterlimit:10;" d="M 235.90625 175.101562 L 253.050781 173.632812 "/>
<path style="fill:none;stroke-width:1.2;stroke-linecap:butt;stroke-linejoin:miter;stroke:rgb(0%,0%,0%);stroke-opacity:1;stroke-miterlimit:10;" d="M 255.625 178.492188 L 264.75 159.011719 "/>
<path style="fill:none;stroke-width:1.2;stroke-linecap:butt;stroke-linejoin:miter;stroke:rgb(0%,0%,0%);stroke-opacity:1;stroke-miterlimit:10;" d="M 264.75 159.011719 L 252.441406 141.371094 "/>
<path style="fill:none;stroke-width:1.2;stroke-linecap:butt;stroke-linejoin:miter;stroke:rgb(0%,0%,0%);stroke-opacity:1;stroke-miterlimit:10;" d="M 259.367188 160.144531 L 249.523438 146.03125 "/>
</g>
</svg>

<svg xmlns="http://www.w3.org/2000/svg" xmlns:xlink="http://www.w3.org/1999/xlink" width="300pt" height="300pt" viewBox="0 0 300 300"><defs><symbol overflow="visible"><path d="M.453 1.594v-7.938h4.5v7.938zm.5-.5h3.5v-6.938h-3.5zm0 0"/></symbol><symbol overflow="visible" id="a"><path d="M.89-6.563h3.766v.75h-2.89v1.938h2.61v.734h-2.61V0H.89zm0 0"/></symbol><symbol overflow="visible" id="b"><path d="M.89-6.563H2.08l2.906 5.485v-5.484h.86V0H4.656L1.75-5.484V0H.89zm0 0"/></symbol><symbol overflow="visible" id="c"><path d="M.89-6.563h.876v2.688H5v-2.688h.89V0H5v-3.125H1.766V0H.89zm0 0"/></symbol><symbol overflow="visible" id="e"><path d="M3.547-5.953c-.65 0-1.164.242-1.547.72-.375.48-.563 1.13-.563 1.952 0 .835.188 1.49.563 1.967.383.48.898.72 1.547.72.644 0 1.156-.24 1.53-.72.376-.476.564-1.132.564-1.968 0-.822-.187-1.474-.562-1.954-.375-.477-.887-.72-1.53-.72zm0-.734c.914 0 1.648.312 2.203.937.55.617.828 1.438.828 2.47 0 1.042-.277 1.87-.828 2.483-.555.617-1.29.922-2.203.922-.93 0-1.668-.305-2.22-.922C.774-1.41.5-2.237.5-3.28c0-1.033.273-1.853.828-2.47.55-.625 1.29-.938 2.22-.938zm0 0"/></symbol><symbol overflow="visible"><path d="M.406 1.422V-5.64h4V1.42zM.844.97h3.11v-6.157H.843zm0 0"/></symbol><symbol overflow="visible" id="d"><path d="M3.688-5.016v2.172h2.17v.672H3.69V0H3.03v-2.172H.845v-.672H3.03v-2.172zm0 0"/></symbol></defs><g><path fill="#fff" d="M0 0h300v300H0z"/><path d="M58.402 185.184l-.918-10.715" stroke-width="1.2" stroke="#3cc" stroke-miterlimit="10" fill="none"/><path d="M57.484 174.47l-.918-10.716" stroke-width="1.2" stroke="#000" stroke-miterlimit="10" fill="none"/><path d="M55.402 179.684h6v11h-6zm0 0" fill="#fff"/><use xlink:href="#a" x="55.402" y="188.347" fill="#3cc"/><path d="M56.566 163.754l-19.48-9.125M56.766 158.258l-15.582-7.3M74.207 151.445l-17.64 12.31M37.086 154.63L35.25 133.2M35.25 133.2l17.64-12.31M39.91 136.117l14.113-9.844M52.89 120.89l19.48 9.126M72.37 130.016l1.837 21.43M67.512 132.59l1.468 17.144M74.207 151.445l19.48 9.125M93.688 160.57l.917 10.715" stroke-width="1.2" stroke="#000" stroke-miterlimit="10" fill="none"/><path d="M94.605 171.285l.918 10.72" stroke-width="1.2" stroke="#00f" stroke-miterlimit="10" fill="none"/><path d="M98.91 162.28l.738 8.575" stroke-width="1.2" stroke="#000" stroke-miterlimit="10" fill="none"/><path d="M99.648 170.855l.735 8.57" stroke-width="1.2" stroke="#00f" stroke-miterlimit="10" fill="none"/><path d="M111.328 148.266l-17.64 12.304" stroke-width="1.2" stroke="#000" stroke-miterlimit="10" fill="none"/><path d="M95.523 182.004l9.74 4.562" stroke-width="1.2" stroke="#00f" stroke-miterlimit="10" fill="none"/><path d="M105.262 186.566l9.738 4.56" stroke-width="1.2" stroke="#000" stroke-miterlimit="10" fill="none"/><path d="M85.523 174.504h21v15h-21zm0 0" fill="#fff"/><g fill="#00f"><use xlink:href="#b" x="85.523" y="186.605"/><use xlink:href="#c" x="92.501" y="186.605"/></g><use xlink:href="#d" x="99.516" y="181.723" fill="#00f"/><path d="M115 191.125l17.645-12.305M113.87 185.746l14.114-9.848M132.645 178.82l-1.84-21.43M130.805 157.39l8.82-6.156" stroke-width="1.2" stroke="#000" stroke-miterlimit="10" fill="none"/><path d="M139.625 151.234l8.82-6.152" stroke-width="1.2" stroke="#00f" stroke-miterlimit="10" fill="none"/><path d="M130.805 157.39l-19.477-9.124M126.71 161.06l-15.58-7.298" stroke-width="1.2" stroke="#000" stroke-miterlimit="10" fill="none"/><path d="M148.445 145.082l9.743 4.563" stroke-width="1.2" stroke="#00f" stroke-miterlimit="10" fill="none"/><path d="M158.188 149.645l9.738 4.562" stroke-width="1.2" stroke="#000" stroke-miterlimit="10" fill="none"/><path d="M141.445 139.582h14v11h-14zm0 0" fill="#fff"/><g fill="#00f"><use xlink:href="#b" x="141.445" y="148.245"/><use xlink:href="#c" x="148.423" y="148.245"/></g><path d="M167.926 154.207l7.32 20.223M167.926 154.207l20.222-7.324M171.672 158.234l16.18-5.86M172.953 173.36l-4.558 9.738" stroke-width="1.2" stroke="#000" stroke-miterlimit="10" fill="none"/><path d="M168.395 183.098l-4.563 9.738" stroke-width="1.2" stroke="#f00" stroke-miterlimit="10" fill="none"/><path d="M177.54 175.504l-4.563 9.738" stroke-width="1.2" stroke="#000" stroke-miterlimit="10" fill="none"/><path d="M172.977 185.242l-4.563 9.742" stroke-width="1.2" stroke="#f00" stroke-miterlimit="10" fill="none"/><path d="M175.246 174.43l20.227-7.32" stroke-width="1.2" stroke="#000" stroke-miterlimit="10" fill="none"/><path d="M158.12 188.41h8v11h-8zm0 0" fill="#fff"/><use xlink:href="#e" x="158.121" y="197.073" fill="#f00"/><path d="M194.398 169.402l9.74 4.563" stroke-width="1.2" stroke="#000" stroke-miterlimit="10" fill="none"/><path d="M204.137 173.965l9.738 4.562" stroke-width="1.2" stroke="#f00" stroke-miterlimit="10" fill="none"/><path d="M196.547 164.816l9.738 4.563" stroke-width="1.2" stroke="#000" stroke-miterlimit="10" fill="none"/><path d="M206.285 169.38l9.738 4.56" stroke-width="1.2" stroke="#f00" stroke-miterlimit="10" fill="none"/><path d="M195.473 167.11l-7.325-20.227" stroke-width="1.2" stroke="#000" stroke-miterlimit="10" fill="none"/><path d="M210.95 170.734h8v11h-8zm0 0" fill="#fff"/><use xlink:href="#e" x="210.949" y="179.397" fill="#f00"/><path d="M188.148 146.883l4.563-9.738" stroke-width="1.2" stroke="#000" stroke-miterlimit="10" fill="none"/><path d="M192.71 137.145l4.563-9.74" stroke-width="1.2" stroke="#00f" stroke-miterlimit="10" fill="none"/><path d="M218.707 125.57m-2.988-.27l.085 1.04m-3.075-1.305l.176 2.078m-3.164-2.347l.266 3.117m-3.254-3.383l.355 4.156m-3.344-4.422l.445 5.192m-3.433-5.46l.536 6.233m-3.524-6.5l.624 7.273m-1.465-7.348l.648 7.563" stroke="#000" stroke-miterlimit="10" fill="none"/><path d="M190.273 121.906h14v11h-14zm0 0" fill="#fff"/><g fill="#00f"><use xlink:href="#b" x="190.273" y="130.569"/><use xlink:href="#c" x="197.251" y="130.569"/></g><path d="M218.707 125.57l9.12-19.48M218.707 125.57l12.305 17.64M231.012 143.21l-9.125 19.477M234.684 147.305l-7.3 15.582M252.44 141.37l-21.428 1.84M221.887 162.688l12.308 17.64M234.195 180.328l21.43-1.836M235.906 175.102l17.145-1.47M255.625 178.492l9.125-19.48M264.75 159.012l-12.31-17.64M259.367 160.145l-9.844-14.114" stroke-width="1.2" stroke="#000" stroke-miterlimit="10" fill="none"/></g></svg>
